X: 336
T: Song zidibin shang qianxian
%%abc-version 2.0
%%abcx-abcm2ps-target-version 5.9.1 (29 Sep 2008)
%%abc-creator hum2abc beta
%%abcx-conversion-date 2013/10/02 07:52:30
%%abc-edited-by Helmut Schaffrath
%%humdrum-veritas 3417254483
%%humdrum-veritas-data 3317383163
%%continueall 1
%%barnumbers 0
L: 1/16
M: 2/4
K: F
d2 d2 d f d c [I:setbarnb 1]| 
A2 c G F2 D2 | 
d2 d2 d f d c | 
A6d2 | 
d2 d2 d f d c | 
A2 c G F2 D2 | 
G G2 c A G F2 | 
D8 |]  



